X:1
T: The Legacy
T: 8 x 32J3C ()
P: The Legacy [2x]
C: Kerr's Third, arr. T. Traub 1-11-99
R: Jig
M: 6/8
K: G
L: 1/8
D|"G"G2 G GDB,|d2 d dBG|"G"G2 A "C"BAB|"D"E2 F "G"G2 D|"G"G2 G GDB,|"Bm"d2 d "Em"dBG|
"G"G2 A "C"BAB|"D"E2 F "G"G2 D || "G"GBd "Em"g2 g|"D"fed "C"edB|"G"GBd "Em"g2 g|
"Bm"fed "C"e2 f|"G"ggg "Bm"fdB|"C"eee "G"dBG|"Em"G2 A "G"BAB |"D"E2 F "G"G |]
